Sources/FrostedUI/Resources/Icons.xcassets/refresh16.imageset/refresh-16.svg

<svg
  width="16"
  height="16"
  viewBox="0 0 16 16"
  fill="none"
  xmlns="http://www.w3.org/2000/svg"
  data-fui-icon="true"
>
  <g
    clip-path="url(#clip0_1_6729)"
    stroke="currentColor"
    stroke-width="1.5"
    stroke-linecap="round"
    stroke-linejoin="round"
  >
    <path
      d="M.75 6.25C.75 4.25 3.5.75 7.5.75 11.5.75 14.25 4.25 14.25 6.25M14.25 6.25H10.75M14.25 6.25V6.25C14.8023 6.25 15.25 5.80303 15.25 5.25074 15.25 4.29189 15.25 2.83363 15.25 1.75M15.25 9.75C15.25 11.75 12.5 15.25 8.5 15.25 4.5 15.25 1.75 11.75 1.75 9.75M1.75 9.75H5.25M1.75 9.75V9.75C1.19772 9.75.75 10.1977.75 10.75V14.25"
    />
  </g>
  <defs>
    <clipPath id="clip0_1_6729">
      <path fill="currentColor" d="M0 0H16V16H0z" />
    </clipPath>
  </defs>
</svg>

<svg xmlns="http://www.w3.org/2000/svg" width="16" height="16" fill="none" data-fui-icon="true" viewBox="0 0 16 16"><g stroke="currentColor" stroke-linecap="round" stroke-linejoin="round" stroke-width="1.5" clip-path="url(#a)"><path d="M.75 6.25c0-2 2.75-5.5 6.75-5.5s6.75 3.5 6.75 5.5m0 0h-3.5m3.5 0a1 1 0 0 0 1-1v-3.5m0 8c0 2-2.75 5.5-6.75 5.5s-6.75-3.5-6.75-5.5m0 0h3.5m-3.5 0a1 1 0 0 0-1 1v3.5"/></g><defs><clipPath id="a"><path fill="currentColor" d="M0 0h16v16H0z"/></clipPath></defs></svg>
